**kern	**silbe	**harmony	**chordsym	**phrase	**timestamp	**leadinstrument
*ICvox	*	*M3/4	*M3/4	*	*	*
*	*	*D:	*D:	*	*	*
=1	=1	=1	=1	=1	=1	=1
*D:	*	*	*	*	*	*
*M3/4	*	*	*	*	*	*
*clefF4	*	*	*	*	*	*
2.r	.	1r;	r	.	0	r
=2	=2	=2	=2	=2	=2	=2
2.r	.	.	.	.	.	.
=1	=1	=1	=1	=1	=1	=1
*	*	*>C_intro	*>C_intro	*>C_intro	*>C_intro	*>C_intro
.	.	2.DM	D:maj (D F# A)	newline	0.302	guitar
=3	=3	=3	=3	=3	=3	=3
2.r	.	.	.	.	.	.
=2	=2	=2	=2	=2	=2	=2
.	.	2.DM	D:maj (C# D F# A)	.	.	guitar
=4	=4	=4	=4	=4	=4	=4
4r	.	.	.	.	.	.
=3	=3	=3	=3	=3	=3	=3
4r	.	2.DM	D:maj (B D F# A)	.	.	guitar
8r	.	.	.	.	.	.
8AA	I	.	.	.	.	.
=5	=5	=5	=5	=5	=5	=5
8F#	knew	.	.	.	.	.
8E	a	.	.	.	.	.
=4	=4	=4	=4	=4	=4	=4
4F#	man,	2.DM	D:maj (A D F#)	.	.	guitar
8E	Bo-	.	.	.	.	.
[8F#	-jan	.	.	.	.	.
=6	=6	=6	=6	=6	=6	=6
8F#]	_	.	.	.	.	.
8E	gles	.	.	.	.	.
=5	=5	=5	=5	=5	=5	=5
4F#	and	2.DM	D:maj (D F# A)	newline	4.821	guitar
8E	he	.	.	.	.	.
[8F#	danced	.	.	.	.	.
=7	=7	=7	=7	=7	=7	=7
4F#]	_	.	.	.	.	.
=6	=6	=6	=6	=6	=6	=6
8E	for	2.DM	D:maj (C# D F# A)	.	.	guitar
[8D	you	.	.	.	.	.
4D]	...	.	.	.	.	.
=8	=8	=8	=8	=8	=8	=8
2.r	.	.	.	.	.	.
=7	=7	=7	=7	=7	=7	=7
.	.	2.DM	D:maj (B D F# A)	.	.	guitar
=9	=9	=9	=9	=9	=9	=9
4r	.	.	.	.	.	.
=8	=8	=8	=8	=8	=8	=8
4r	.	2.DM	D:maj (A D F#)	.	.	guitar
8r	.	.	.	.	.	.
8GG	in	.	.	.	.	.
=10	=10	=10	=10	=10	=10	=10
4B	worn-	.	.	.	.	.
=9	=9	=9	=9	=9	=9	=9
*	*	*>A_verse	*>A_verse	*>A_verse	*>A_verse	*>A_verse
2A	-out	2.DM	D:maj (D F# A)	newline	9.208	voice
=11	=11	=11	=11	=11	=11	=11
2.A	shoes	.	.	.	.	.
=10	=10	=10	=10	=10	=10	=10
.	.	2.DM	D:maj (C# D F# A)	.	.	voice
=12	=12	=12	=12	=12	=12	=12
4r	.	.	.	.	.	.
=11	=11	=11	=11	=11	=11	=11
4r	.	2.DM	D:maj (B D F# A)	.	.	voice
8r	.	.	.	.	.	.
8AA	The	.	.	.	.	.
=13	=13	=13	=13	=13	=13	=13
8F#	sil-	.	.	.	.	.
8E	-ver	.	.	.	.	.
=12	=12	=12	=12	=12	=12	=12
4F#	hair,	2.DM	D:maj (A D F#)	.	.	voice
8E	a	.	.	.	.	.
[8F#	rag	.	.	.	.	.
=14	=14	=14	=14	=14	=14	=14
8F#]	_	.	.	.	.	.
8E	ged	.	.	.	.	.
=13	=13	=13	=13	=13	=13	=13
4F#	shirt	2.GM	G:maj (G B D)	newline	13.619	voice
8E	and	.	.	.	.	.
[8F#	bag	.	.	.	.	.
=15	=15	=15	=15	=15	=15	=15
8F#]	_	.	.	.	.	.
8E	gy	.	.	.	.	.
=14	=14	=14	=14	=14	=14	=14
2D	pants,	2.GM	G:maj (G B D)	.	.	voice
=16	=16	=16	=16	=16	=16	=16
2.r	.	.	.	.	.	.
=15	=15	=15	=15	=15	=15	=15
.	.	2.AM	A:maj (A C# E)	.	.	voice
=17	=17	=17	=17	=17	=17	=17
4r	.	.	.	.	.	.
=16	=16	=16	=16	=16	=16	=16
4r	.	2.AM	A:maj (A C# E)	.	.	voice
8r	.	.	.	.	.	.
8GG	the	.	.	.	.	.
=18	=18	=18	=18	=18	=18	=18
2B	old	.	.	.	.	.
=17	=17	=17	=17	=17	=17	=17
.	.	2.DM	D:maj (D F# A)	newline	18.119	voice
4A	soft	.	.	.	.	.
=19	=19	=19	=19	=19	=19	=19
2.A	shoe.	.	.	.	.	.
=18	=18	=18	=18	=18	=18	=18
.	.	2.DM	D:maj (C# D F# A)	.	.	voice
=20	=20	=20	=20	=20	=20	=20
2.r	.	.	.	.	.	.
=19	=19	=19	=19	=19	=19	=19
.	.	2.DM	D:maj (B D F# A)	.	.	voice
=21	=21	=21	=21	=21	=21	=21
4r	.	.	.	.	.	.
=20	=20	=20	=20	=20	=20	=20
4r	.	2.DM	D:maj (A D F#)	.	.	voice
8r	.	.	.	.	.	.
8GG	He	.	.	.	.	.
=22	=22	=22	=22	=22	=22	=22
4B	jumped	.	.	.	.	.
=21	=21	=21	=21	=21	=21	=21
8Bq	_	.	.	.	.	.
2c#	so	2.GM	G:maj (G B D)	newline	22.453	voice
=23	=23	=23	=23	=23	=23	=23
[2.A	high,	.	.	.	.	.
=22	=22	=22	=22	=22	=22	=22
.	.	2.GM	G:maj (G B D)	.	.	voice
=24	=24	=24	=24	=24	=24	=24
4A]	_	.	.	.	.	.
=23	=23	=23	=23	=23	=23	=23
4F#	jumped	2.AM	A:maj (A C# E)	.	.	voice
8E	so	.	.	.	.	.
[8D	high,	.	.	.	.	.
=25	=25	=25	=25	=25	=25	=25
2.D]	_	.	.	.	.	.
=24	=24	=24	=24	=24	=24	=24
.	.	2.AM	A:maj (A C# E)	.	.	voice
=26	=26	=26	=26	=26	=26	=26
2.r	.	.	.	.	.	.
=25	=25	=25	=25	=25	=25	=25
.	.	2.GM	G:maj (G B D)	newline	26.852	voice
=27	=27	=27	=27	=27	=27	=27
4r	.	.	.	.	.	.
=26	=26	=26	=26	=26	=26	=26
4r	.	2.GM	G:maj (G B D)	.	.	voice
8F#	then	.	.	.	.	.
8F#	he'd	.	.	.	.	.
=28	=28	=28	=28	=28	=28	=28
4F#	light-	.	.	.	.	.
=27	=27	=27	=27	=27	=27	=27
8E	-ly	2.DM	D:maj (D F# A)	.	.	voice
8D	touch	.	.	.	.	.
8r	.	.	.	.	.	.
[8E	down	.	.	.	.	.
=29	=29	=29	=29	=29	=29	=29
2.E]	...	.	.	.	.	.
=28	=28	=28	=28	=28	=28	=28
.	.	2.F#M	F#:maj (F# A# C#)	.	.	voice
=30	=30	=30	=30	=30	=30	=30
2.r	.	.	.	.	.	.
=29	=29	=29	=29	=29	=29	=29
.	.	2.Bm	B:min (B D F#)	newline	31.24	voice
=31	=31	=31	=31	=31	=31	=31
2.r	.	.	.	.	.	.
=30	=30	=30	=30	=30	=30	=30
.	.	2.Bm	B:min (A B D F#)	.	.	voice
=32	=32	=32	=32	=32	=32	=32
2.r	.	.	.	.	.	.
=31	=31	=31	=31	=31	=31	=31
.	.	2.EMm	E:9 (G# E D F#)	.	.	voice
=33	=33	=33	=33	=33	=33	=33
2.r	.	.	.	.	.	.
=32	=32	=32	=32	=32	=32	=32
.	.	2.EMm	E:9 (E G# D F#)	.	.	voice
=34	=34	=34	=34	=34	=34	=34
8B	Mis-	.	.	.	.	.
8A	-ter	.	.	.	.	.
=33	=33	=33	=33	=33	=33	=33
8Bq	_	.	.	.	.	.
2c#	Bo-	2.AM	A:maj (A C# E)	newline	35.62	voice
=35	=35	=35	=35	=35	=35	=35
8A	-jan	.	.	.	.	.
8F#	_	.	.	.	.	.
=34	=34	=34	=34	=34	=34	=34
[2E	gles	2.AM	A:maj (A C# E)	.	.	voice
=36	=36	=36	=36	=36	=36	=36
4E]	...	.	.	.	.	.
=35	=35	=35	=35	=35	=35	=35
4r	.	2.AM	A:maj (A C# E)	.	.	voice
4r	.	.	.	.	.	.
=37	=37	=37	=37	=37	=37	=37
2.r	.	.	.	.	.	.
=36	=36	=36	=36	=36	=36	=36
.	.	2.AM	A:maj (A C# E)	.	.	voice
=38	=38	=38	=38	=38	=38	=38
8B	Mis-	.	.	.	.	.
8A	-ter	.	.	.	.	.
=37	=37	=37	=37	=37	=37	=37
*	*	*>B_chorus	*>B_chorus	*>B_chorus	*>B_chorus	*>B_chorus
8Bq	_	.	.	.	.	.
2c#	Bo-	2.Bm	B:min (B D F#)	newline	39.872	voice
=39	=39	=39	=39	=39	=39	=39
8A	-jan	.	.	.	.	.
8F#	_	.	.	.	.	.
=38	=38	=38	=38	=38	=38	=38
[2E	gles	2.Bm	B:min (B D F#)	.	.	voice
=40	=40	=40	=40	=40	=40	=40
4E]	...	.	.	.	.	.
=39	=39	=39	=39	=39	=39	=39
4r	.	2.AM	A:maj (A C# E)	.	.	voice
4r	.	.	.	.	.	.
=41	=41	=41	=41	=41	=41	=41
2.r	.	.	.	.	.	.
=40	=40	=40	=40	=40	=40	=40
.	.	2.AM	A:maj (A C# E)	.	.	voice
=42	=42	=42	=42	=42	=42	=42
8B	Mis-	.	.	.	.	.
8A	-ter	.	.	.	.	.
=41	=41	=41	=41	=41	=41	=41
8Bq	_	.	.	.	.	.
2c#	Bo-	2.Bm	B:min (B D F#)	newline	44.247	voice
=43	=43	=43	=43	=43	=43	=43
8A	-jan	.	.	.	.	.
8F#	_	.	.	.	.	.
=42	=42	=42	=42	=42	=42	=42
[2E	gles	2.Bm	B:min (B D F#)	.	.	voice
=44	=44	=44	=44	=44	=44	=44
4E]	...	.	.	.	.	.
=43	=43	=43	=43	=43	=43	=43
4r	.	2.AM	A:maj (A C# E)	.	.	voice
4r	.	.	.	.	.	.
=45	=45	=45	=45	=45	=45	=45
[2.D	dance	.	.	.	.	.
=44	=44	=44	=44	=44	=44	=44
.	.	2.AM	A:maj (A C# E)	.	.	voice
=46	=46	=46	=46	=46	=46	=46
4D]	_	.	.	.	.	.
=45	=45	=45	=45	=45	=45	=45
4r	.	2.Bm	B:min (B D F#)	newline	48.542	voice
4r	.	.	.	.	.	.
=47	=47	=47	=47	=47	=47	=47
2.r	.	.	.	.	.	.
=46	=46	=46	=46	=46	=46	=46
.	.	2.Bm	B:min (B D F#)	.	.	voice
=48	=48	=48	=48	=48	=48	=48
4r	.	.	.	.	.	.
=47	=47	=47	=47	=47	=47	=47
4r	.	2.AM	A:maj (A C# E)	.	.	voice
8r	.	.	.	.	.	.
8AA	I	.	.	.	.	.
=49	=49	=49	=49	=49	=49	=49
8F#	met	.	.	.	.	.
8E	him	.	.	.	.	.
=48	=48	=48	=48	=48	=48	=48
4F#	in	2.AM	A:maj (A C# E)	.	.	voice
8E	a	.	.	.	.	.
[8F#	cell	.	.	.	.	.
=50	=50	=50	=50	=50	=50	=50
8F#]	_	.	.	.	.	.
8E	in	.	.	.	.	.
=49	=49	=49	=49	=49	=49	=49
*	*	*>C_trans	*>C_trans	*>C_trans	*>C_trans	*>C_trans
8F#	New	2.DM	D:maj (D F# A)	newline	52.869	guitar
[8E	Or-	.	.	.	.	.
8E]	_	.	.	.	.	.
[8F#	-leans,	.	.	.	.	.
=51	=51	=51	=51	=51	=51	=51
4F#]	_	.	.	.	.	.
=50	=50	=50	=50	=50	=50	=50
8E	I	2.DM	D:maj (C# D F# A)	.	.	guitar
[8D	was	.	.	.	.	.
4D]	...	.	.	.	.	.
=52	=52	=52	=52	=52	=52	=52
2.r	.	.	.	.	.	.
=51	=51	=51	=51	=51	=51	=51
.	.	2.DM	D:maj (B D F# A)	.	.	guitar
=53	=53	=53	=53	=53	=53	=53
2.r	.	.	.	.	.	.
=52	=52	=52	=52	=52	=52	=52
.	.	2.DM	D:maj (A D F#)	.	.	guitar
=54	=54	=54	=54	=54	=54	=54
8Aq	_	.	.	.	.	.
2B	down	.	.	.	.	.
=53	=53	=53	=53	=53	=53	=53
*	*	*>A_verse	*>A_verse	*>A_verse	*>A_verse	*>A_verse
.	.	2.DM	D:maj (D F# A)	newline	57.234	voice
8A	and	.	.	.	.	.
[8A	out	.	.	.	.	.
=55	=55	=55	=55	=55	=55	=55
2.A]	_	.	.	.	.	.
=54	=54	=54	=54	=54	=54	=54
.	.	2.DM	D:maj (C# D F# A)	.	.	voice
=56	=56	=56	=56	=56	=56	=56
4r	.	.	.	.	.	.
=55	=55	=55	=55	=55	=55	=55
4r	.	2.DM	D:maj (B D F# A)	.	.	voice
8r	.	.	.	.	.	.
8C#	He	.	.	.	.	.
=57	=57	=57	=57	=57	=57	=57
8F#	looked	.	.	.	.	.
8E	to	.	.	.	.	.
=56	=56	=56	=56	=56	=56	=56
4F#	me	2.DM	D:maj (A D F#)	.	.	voice
8E	to	.	.	.	.	.
[8F#	be	.	.	.	.	.
=58	=58	=58	=58	=58	=58	=58
2F#]	_	.	.	.	.	.
=57	=57	=57	=57	=57	=57	=57
.	.	2.GM	G:maj (G B D)	newline	61.618	voice
8E	the	.	.	.	.	.
[8F#	eyes	.	.	.	.	.
=59	=59	=59	=59	=59	=59	=59
4F#]	_	.	.	.	.	.
=58	=58	=58	=58	=58	=58	=58
8E	of	2.GM	G:maj (G B D)	.	.	voice
[8D	age	.	.	.	.	.
4D]	...	.	.	.	.	.
=60	=60	=60	=60	=60	=60	=60
4r	.	.	.	.	.	.
=59	=59	=59	=59	=59	=59	=59
4r	.	2.AM	A:maj (A C# E)	.	.	voice
8GG	as	.	.	.	.	.
8GG	he	.	.	.	.	.
=61	=61	=61	=61	=61	=61	=61
2B	spoke	.	.	.	.	.
=60	=60	=60	=60	=60	=60	=60
.	.	2.AM	A:maj (A C# E)	.	.	voice
8A	right	.	.	.	.	.
[8A	out	.	.	.	.	.
=62	=62	=62	=62	=62	=62	=62
2.A]	_	.	.	.	.	.
=61	=61	=61	=61	=61	=61	=61
.	.	2.DM	D:maj (D F# A)	newline	65.985	voice
=63	=63	=63	=63	=63	=63	=63
4r	.	.	.	.	.	.
=62	=62	=62	=62	=62	=62	=62
4r	.	2.DM	D:maj (C# D F# A)	.	.	voice
8r	.	.	.	.	.	.
8C#	He	.	.	.	.	.
=64	=64	=64	=64	=64	=64	=64
4B	talked	.	.	.	.	.
=63	=63	=63	=63	=63	=63	=63
8Bq	_	.	.	.	.	.
2c#	of	2.DM	D:maj (B D F# A)	.	.	voice
=65	=65	=65	=65	=65	=65	=65
[2.A	life,	.	.	.	.	.
=64	=64	=64	=64	=64	=64	=64
.	.	2.DM	D:maj (A D F#)	.	.	voice
=66	=66	=66	=66	=66	=66	=66
4A]	_	.	.	.	.	.
=65	=65	=65	=65	=65	=65	=65
4F#	talked	2.GM	G:maj (G B D)	newline	70.397	voice
8E	of	.	.	.	.	.
[8D	life	.	.	.	.	.
=67	=67	=67	=67	=67	=67	=67
2.D]	...	.	.	.	.	.
=66	=66	=66	=66	=66	=66	=66
.	.	2.GM	G:maj (G B D)	.	.	voice
=68	=68	=68	=68	=68	=68	=68
2.r	.	.	.	.	.	.
=67	=67	=67	=67	=67	=67	=67
.	.	2.AM	A:maj (A C# E)	.	.	voice
=69	=69	=69	=69	=69	=69	=69
4r	.	.	.	.	.	.
=68	=68	=68	=68	=68	=68	=68
4r	.	2.AM	A:maj (A C# E)	.	.	voice
8r	.	.	.	.	.	.
8C#	He	.	.	.	.	.
=70	=70	=70	=70	=70	=70	=70
4F#	laughed,	.	.	.	.	.
=69	=69	=69	=69	=69	=69	=69
8F#	slapped	2.GM	G:maj (G B D)	newline	74.766	voice
8E	his	.	.	.	.	.
8E	leg	.	.	.	.	.
8D	in-	.	.	.	.	.
=71	=71	=71	=71	=71	=71	=71
2.E	-stead...	.	.	.	.	.
=70	=70	=70	=70	=70	=70	=70
.	.	2.GM	G:maj (G B D)	.	.	voice
=72	=72	=72	=72	=72	=72	=72
2.r	.	.	.	.	.	.
=71	=71	=71	=71	=71	=71	=71
.	.	2.DM	D:maj (D F# A)	.	.	voice
=73	=73	=73	=73	=73	=73	=73
2.r	.	.	.	.	.	.
=72	=72	=72	=72	=72	=72	=72
.	.	2.F#M	F#:maj (F# A# C#)	.	.	voice
=74	=74	=74	=74	=74	=74	=74
4r	.	.	.	.	.	.
=73	=73	=73	=73	=73	=73	=73
4r	.	2.Bm	B:min (B D F#)	newline	79.198	voice
8r	.	.	.	.	.	.
8AA	he	.	.	.	.	.
=75	=75	=75	=75	=75	=75	=75
8F#	said	.	.	.	.	.
8E	the	.	.	.	.	.
=74	=74	=74	=74	=74	=74	=74
4F#	name	2.Bm	B:min (A B D F#)	.	.	voice
8E	Bo-	.	.	.	.	.
[8F#	-jan	.	.	.	.	.
=76	=76	=76	=76	=76	=76	=76
8F#]	_	.	.	.	.	.
8E	gles	.	.	.	.	.
=75	=75	=75	=75	=75	=75	=75
4F#	and	2.EMm	E:9 (G# E D F#)	.	.	voice
8E	he	.	.	.	.	.
[8F#	danced	.	.	.	.	.
=77	=77	=77	=77	=77	=77	=77
4F#]	_	.	.	.	.	.
=76	=76	=76	=76	=76	=76	=76
8E	a	2.EMm	E:9 (E G# D F#)	.	.	voice
[8D	lick	.	.	.	.	.
8D]	_	.	.	.	.	.
8r	...	.	.	.	.	.
=78	=78	=78	=78	=78	=78	=78
2.r	.	.	.	.	.	.
=77	=77	=77	=77	=77	=77	=77
.	.	2.AM	A:maj (A C# E)	newline	83.58	voice
=79	=79	=79	=79	=79	=79	=79
2.r	.	.	.	.	.	.
=78	=78	=78	=78	=78	=78	=78
.	.	2.AM	A:maj (A C# E)	.	.	voice
=80	=80	=80	=80	=80	=80	=80
2B	'Cross	.	.	.	.	.
=79	=79	=79	=79	=79	=79	=79
.	.	2.AM	A:maj (A C# E)	.	.	voice
8A	the	.	.	.	.	.
[8A	cell	.	.	.	.	.
=81	=81	=81	=81	=81	=81	=81
2.A]	_	.	.	.	.	.
=80	=80	=80	=80	=80	=80	=80
.	.	2.AM	A:maj (A C# E)	.	.	voice
=82	=82	=82	=82	=82	=82	=82
2.r	.	.	.	.	.	.
=81	=81	=81	=81	=81	=81	=81
*	*	*>A_verse	*>A_verse	*>A_verse	*>A_verse	*>A_verse
.	.	2.DM	D:maj (D F# A)	newline	87.845	voice
=83	=83	=83	=83	=83	=83	=83
4r	.	.	.	.	.	.
=82	=82	=82	=82	=82	=82	=82
4r	.	2.DM	D:maj (C# D F# A)	.	.	voice
8r	.	.	.	.	.	.
8C#	He	.	.	.	.	.
=84	=84	=84	=84	=84	=84	=84
8F#	grabbed	.	.	.	.	.
8E	his	.	.	.	.	.
=83	=83	=83	=83	=83	=83	=83
4F#	pants	2.DM	D:maj (B D F# A)	.	.	voice
8E	for	.	.	.	.	.
8F#	bet-	.	.	.	.	.
=85	=85	=85	=85	=85	=85	=85
8E	-ter	.	.	.	.	.
4F#	stance,	.	.	.	.	.
=84	=84	=84	=84	=84	=84	=84
.	.	2.DM	D:maj (A D F#)	.	.	voice
8E	ooh,	.	.	.	.	.
8F#	_	.	.	.	.	.
8E	he	.	.	.	.	.
=86	=86	=86	=86	=86	=86	=86
4F#	jumped	.	.	.	.	.
=85	=85	=85	=85	=85	=85	=85
8E	so	2.GM	G:maj (G B D)	newline	92.325	voice
[8D	high	.	.	.	.	.
4D]	...	.	.	.	.	.
=87	=87	=87	=87	=87	=87	=87
2.r	.	.	.	.	.	.
=86	=86	=86	=86	=86	=86	=86
.	.	2.GM	G:maj (G B D)	.	.	voice
=88	=88	=88	=88	=88	=88	=88
4r	.	.	.	.	.	.
=87	=87	=87	=87	=87	=87	=87
4r	.	2.AM	A:maj (A C# E)	.	.	voice
8r	.	.	.	.	.	.
8GG	he	.	.	.	.	.
=89	=89	=89	=89	=89	=89	=89
4B	clicked	.	.	.	.	.
=88	=88	=88	=88	=88	=88	=88
2A	his	2.AM	A:maj (A C# E)	.	.	voice
=90	=90	=90	=90	=90	=90	=90
2.A	heels.	.	.	.	.	.
=89	=89	=89	=89	=89	=89	=89
.	.	2.DM	D:maj (D F# A)	newline	96.695	voice
=91	=91	=91	=91	=91	=91	=91
2.r	.	.	.	.	.	.
=90	=90	=90	=90	=90	=90	=90
.	.	2.DM	D:maj (C# D F# A)	.	.	voice
=92	=92	=92	=92	=92	=92	=92
4r	.	.	.	.	.	.
=91	=91	=91	=91	=91	=91	=91
4r	.	2.DM	D:maj (B D F# A)	.	.	voice
8r	.	.	.	.	.	.
8D	He	.	.	.	.	.
=93	=93	=93	=93	=93	=93	=93
4B	let	.	.	.	.	.
=92	=92	=92	=92	=92	=92	=92
4B	go	2.DM	D:maj (A D F#)	.	.	voice
8g	a	.	.	.	.	.
[8A	laugh,	.	.	.	.	.
=94	=94	=94	=94	=94	=94	=94
2A_	_	.	.	.	.	.
=93	=93	=93	=93	=93	=93	=93
.	.	2.GM	G:maj (G B D)	newline	101.008	voice
8A]	_	.	.	.	.	.
8E	he	.	.	.	.	.
=95	=95	=95	=95	=95	=95	=95
4F#	let	.	.	.	.	.
=94	=94	=94	=94	=94	=94	=94
4F#	go	2.GM	G:maj (G B D)	.	.	voice
8E	a	.	.	.	.	.
[8D	laugh	.	.	.	.	.
=96	=96	=96	=96	=96	=96	=96
2D]	...	.	.	.	.	.
=95	=95	=95	=95	=95	=95	=95
.	.	2.AM	A:maj (A C# E)	.	.	voice
=97	=97	=97	=97	=97	=97	=97
2.r	.	.	.	.	.	.
=96	=96	=96	=96	=96	=96	=96
.	.	2.AM	A:maj (A C# E)	.	.	voice
=98	=98	=98	=98	=98	=98	=98
8.r	.	.	.	.	.	.
8.r	.	.	.	.	.	.
16.r	.	.	.	.	.	.
8.F#	shook	.	.	.	.	.
=97	=97	=97	=97	=97	=97	=97
.	.	2.GM	G:maj (G B D)	newline	105.328	voice
[16.F#	back	.	.	.	.	.
=99	=99	=99	=99	=99	=99	=99
16.F#]	_	.	.	.	.	.
8.F#	his	.	.	.	.	.
[16.F#	clothes	.	.	.	.	.
8F#]	_	.	.	.	.	.
=98	=98	=98	=98	=98	=98	=98
8E	all	2.GM	G:maj (G B D)	.	.	voice
8D	a-	.	.	.	.	.
=100	=100	=100	=100	=100	=100	=100
2.E	-round.	.	.	.	.	.
=99	=99	=99	=99	=99	=99	=99
.	.	2.DM	D:maj (D F# A)	.	.	voice
=101	=101	=101	=101	=101	=101	=101
2.r	.	.	.	.	.	.
=100	=100	=100	=100	=100	=100	=100
.	.	2.F#M	F#:maj (F# A# C#)	.	.	voice
=102	=102	=102	=102	=102	=102	=102
2.r	.	.	.	.	.	.
=101	=101	=101	=101	=101	=101	=101
.	.	2.Bm	B:min (B D F#)	newline	109.698	voice
=103	=103	=103	=103	=103	=103	=103
2.r	.	.	.	.	.	.
=102	=102	=102	=102	=102	=102	=102
.	.	2.Bm	B:min (A B D F#)	.	.	voice
=104	=104	=104	=104	=104	=104	=104
2.r	.	.	.	.	.	.
=103	=103	=103	=103	=103	=103	=103
.	.	2.EMm	E:9 (G# E D F#)	.	.	voice
=105	=105	=105	=105	=105	=105	=105
8B	Mis-	.	.	.	.	.
8A	-ter	.	.	.	.	.
8Bq	_	.	.	.	.	.
2c#	Bo-	.	.	.	.	.
=104	=104	=104	=104	=104	=104	=104
.	.	2.EMm	E:9 (E G# D F#)	.	.	voice
=106	=106	=106	=106	=106	=106	=106
8A	-jan	.	.	.	.	.
8F#	_	.	.	.	.	.
[2E	gles	.	.	.	.	.
=105	=105	=105	=105	=105	=105	=105
.	.	2.AM	A:maj (A C# E)	newline	114.073	voice
=107	=107	=107	=107	=107	=107	=107
4E]	...	.	.	.	.	.
4r	.	.	.	.	.	.
=106	=106	=106	=106	=106	=106	=106
4r	.	2.AM	A:maj (A C# E)	.	.	voice
=108	=108	=108	=108	=108	=108	=108
2.r	.	.	.	.	.	.
=107	=107	=107	=107	=107	=107	=107
.	.	2.AM	A:maj (A C# E)	.	.	voice
=109	=109	=109	=109	=109	=109	=109
8B	Mis-	.	.	.	.	.
8A	-ter	.	.	.	.	.
8Bq	_	.	.	.	.	.
2c#	Bo-	.	.	.	.	.
=108	=108	=108	=108	=108	=108	=108
.	.	2.AM	A:maj (A C# E)	.	.	voice
=110	=110	=110	=110	=110	=110	=110
8A	-jan	.	.	.	.	.
8F#	_	.	.	.	.	.
2E	gles...	.	.	.	.	.
=109	=109	=109	=109	=109	=109	=109
*	*	*>B_chorus	*>B_chorus	*>B_chorus	*>B_chorus	*>B_chorus
.	.	2.Bm	B:min (B D F#)	newline	118.329	voice
=111	=111	=111	=111	=111	=111	=111
2.r	.	.	.	.	.	.
=110	=110	=110	=110	=110	=110	=110
.	.	2.Bm	B:min (B D F#)	.	.	voice
=112	=112	=112	=112	=112	=112	=112
2.r	.	.	.	.	.	.
=111	=111	=111	=111	=111	=111	=111
.	.	2.AM	A:maj (A C# E)	.	.	voice
=113	=113	=113	=113	=113	=113	=113
8B	Mis-	.	.	.	.	.
8A	-ter	.	.	.	.	.
8Bq	_	.	.	.	.	.
2c#	Bo-	.	.	.	.	.
=112	=112	=112	=112	=112	=112	=112
.	.	2.AM	A:maj (A C# E)	.	.	voice
=114	=114	=114	=114	=114	=114	=114
8A	-jan	.	.	.	.	.
8F#	_	.	.	.	.	.
[2E	gles	.	.	.	.	.
=113	=113	=113	=113	=113	=113	=113
.	.	2.Bm	B:min (B D F#)	newline	122.665	voice
=115	=115	=115	=115	=115	=115	=115
4E]	...	.	.	.	.	.
4r	.	.	.	.	.	.
=114	=114	=114	=114	=114	=114	=114
4r	.	2.Bm	B:min (B D F#)	.	.	voice
=116	=116	=116	=116	=116	=116	=116
[2.D	dance	.	.	.	.	.
=115	=115	=115	=115	=115	=115	=115
.	.	2.AM	A:maj (A C# E)	.	.	voice
=117	=117	=117	=117	=117	=117	=117
4D]	_	.	.	.	.	.
4r	.	.	.	.	.	.
=116	=116	=116	=116	=116	=116	=116
4r	.	2.AM	A:maj (A C# E)	.	.	voice
=118	=118	=118	=118	=118	=118	=118
2.r	.	.	.	.	.	.
=117	=117	=117	=117	=117	=117	=117
.	.	2.Bm	B:min (B D F#)	newline	127.008	voice
=119	=119	=119	=119	=119	=119	=119
2.r	.	.	.	.	.	.
=118	=118	=118	=118	=118	=118	=118
.	.	2.Bm	B:min (B D F#)	.	.	voice
=120	=120	=120	=120	=120	=120	=120
4r	.	.	.	.	.	.
4r	.	.	.	.	.	.
=119	=119	=119	=119	=119	=119	=119
8r	.	2.AM	A:maj (A C# E)	.	.	voice
8AA	He	.	.	.	.	.
=121	=121	=121	=121	=121	=121	=121
4F#	danced	.	.	.	.	.
8E	for	.	.	.	.	.
4F#	those	.	.	.	.	.
=120	=120	=120	=120	=120	=120	=120
.	.	2.AM	A:maj (A C# E)	.	.	voice
8E	at	.	.	.	.	.
=122	=122	=122	=122	=122	=122	=122
8F#	min-	.	.	.	.	.
8E	-strel	.	.	.	.	.
4F#	shows	.	.	.	.	.
=121	=121	=121	=121	=121	=121	=121
*	*	*>C_trans	*>C_trans	*>C_trans	*>C_trans	*>C_trans
8E	and	2.DM	D:maj (D F# A)	newline	131.29	guitar
[8F#	coun	.	.	.	.	.
=123	=123	=123	=123	=123	=123	=123
8F#]	_	.	.	.	.	.
8E	ty	.	.	.	.	.
2D	fairs...	.	.	.	.	.
=122	=122	=122	=122	=122	=122	=122
.	.	2.DM	D:maj (C# D F# A)	.	.	guitar
=124	=124	=124	=124	=124	=124	=124
2.r	.	.	.	.	.	.
=123	=123	=123	=123	=123	=123	=123
.	.	2.DM	D:maj (B D F# A)	.	.	guitar
=125	=125	=125	=125	=125	=125	=125
4r	.	.	.	.	.	.
4r	.	.	.	.	.	.
=124	=124	=124	=124	=124	=124	=124
8r	.	2.DM	D:maj (A D F#)	.	.	guitar
8GG	through-	.	.	.	.	.
=126	=126	=126	=126	=126	=126	=126
2B	-out	.	.	.	.	.
=125	=125	=125	=125	=125	=125	=125
*	*	*>A_verse	*>A_verse	*>A_verse	*>A_verse	*>A_verse
8A	the	2.DM	D:maj (D F# A)	newline	135.692	voice
[8A	south	.	.	.	.	.
=127	=127	=127	=127	=127	=127	=127
2.A]	_	.	.	.	.	.
=126	=126	=126	=126	=126	=126	=126
.	.	2.DM	D:maj (C# D F# A)	.	.	voice
=128	=128	=128	=128	=128	=128	=128
4r	.	.	.	.	.	.
4r	.	.	.	.	.	.
=127	=127	=127	=127	=127	=127	=127
8r	.	2.DM	D:maj (B D F# A)	.	.	voice
8AA	He	.	.	.	.	.
=129	=129	=129	=129	=129	=129	=129
8F#	spoke	.	.	.	.	.
8E	with	.	.	.	.	.
4F#	tears	.	.	.	.	.
=128	=128	=128	=128	=128	=128	=128
8E	of	2.DM	D:maj (A D F#)	.	.	voice
8F#	fif	.	.	.	.	.
=130	=130	=130	=130	=130	=130	=130
8r	.	.	.	.	.	.
8E	teen	.	.	.	.	.
4F#	years	.	.	.	.	.
=129	=129	=129	=129	=129	=129	=129
8F#	how	2.GM	G:maj (G B D)	newline	140.144	voice
8E	his	.	.	.	.	.
=131	=131	=131	=131	=131	=131	=131
4F#	dog	.	.	.	.	.
8E	and	.	.	.	.	.
4.D	him...	.	.	.	.	.
=130	=130	=130	=130	=130	=130	=130
.	.	2.GM	G:maj (G B D)	.	.	voice
=132	=132	=132	=132	=132	=132	=132
2.r	.	.	.	.	.	.
=131	=131	=131	=131	=131	=131	=131
.	.	2.AM	A:maj (A C# E)	.	.	voice
=133	=133	=133	=133	=133	=133	=133
4r	.	.	.	.	.	.
4r	.	.	.	.	.	.
=132	=132	=132	=132	=132	=132	=132
8r	.	2.AM	A:maj (A C# E)	.	.	voice
8GG	they	.	.	.	.	.
=134	=134	=134	=134	=134	=134	=134
4B	tra-	.	.	.	.	.
4B	-velled	.	.	.	.	.
=133	=133	=133	=133	=133	=133	=133
8A	a-	2.DM	D:maj (D F# A)	newline	144.531	voice
[8A	-bout	.	.	.	.	.
=135	=135	=135	=135	=135	=135	=135
2.A]	...	.	.	.	.	.
=134	=134	=134	=134	=134	=134	=134
.	.	2.DM	D:maj (C# D F# A)	.	.	voice
=136	=136	=136	=136	=136	=136	=136
2.r	.	.	.	.	.	.
=135	=135	=135	=135	=135	=135	=135
.	.	2.DM	D:maj (B D F# A)	.	.	voice
=137	=137	=137	=137	=137	=137	=137
4r	.	.	.	.	.	.
4r	.	.	.	.	.	.
=136	=136	=136	=136	=136	=136	=136
8r	.	2.DM	D:maj (A D F#)	.	.	voice
8GG	His	.	.	.	.	.
=138	=138	=138	=138	=138	=138	=138
4B	dog	.	.	.	.	.
4B	up	.	.	.	.	.
=137	=137	=137	=137	=137	=137	=137
8c#	and	2.GM	G:maj (G B D)	newline	148.958	voice
[8A	died,	.	.	.	.	.
=139	=139	=139	=139	=139	=139	=139
2.A_	_	.	.	.	.	.
=138	=138	=138	=138	=138	=138	=138
.	.	2.GM	G:maj (G B D)	.	.	voice
=140	=140	=140	=140	=140	=140	=140
8A]	_	.	.	.	.	.
8F	he	.	.	.	.	.
8F#	up	.	.	.	.	.
[8E	and	.	.	.	.	.
=139	=139	=139	=139	=139	=139	=139
4E]	_	2.AM	A:maj (A C# E)	.	.	voice
=141	=141	=141	=141	=141	=141	=141
2.D	died.	.	.	.	.	.
=140	=140	=140	=140	=140	=140	=140
.	.	2.AM	A:maj (A C# E)	.	.	voice
=142	=142	=142	=142	=142	=142	=142
2.r	.	.	.	.	.	.
=141	=141	=141	=141	=141	=141	=141
.	.	2.GM	G:maj (G B D)	newline	153.302	voice
=143	=143	=143	=143	=143	=143	=143
4r	.	.	.	.	.	.
8GG	Af-	.	.	.	.	.
8GG	-ter	.	.	.	.	.
=142	=142	=142	=142	=142	=142	=142
8F#	twen-	2.GM	G:maj (G B D)	.	.	voice
8F#	-ty	.	.	.	.	.
=144	=144	=144	=144	=144	=144	=144
4F#	years	.	.	.	.	.
4E	he	.	.	.	.	.
=143	=143	=143	=143	=143	=143	=143
8D	still	2.DM	D:maj (D F# A)	.	.	voice
[8E	grieves	.	.	.	.	.
=145	=145	=145	=145	=145	=145	=145
2.E]	...	.	.	.	.	.
=144	=144	=144	=144	=144	=144	=144
.	.	2.F#M	F#:maj (F# A# C#)	.	.	voice
=146	=146	=146	=146	=146	=146	=146
2.r	.	.	.	.	.	.
=145	=145	=145	=145	=145	=145	=145
.	.	2.Bm	B:min (B D F#)	newline	157.693	voice
=147	=147	=147	=147	=147	=147	=147
2.r	.	.	.	.	.	.
=146	=146	=146	=146	=146	=146	=146
.	.	2.Bm	B:min (A B D F#)	.	.	voice
=148	=148	=148	=148	=148	=148	=148
4r	.	.	.	.	.	.
4r	.	.	.	.	.	.
=147	=147	=147	=147	=147	=147	=147
8r	.	2.EMm	E:9 (G# E D F#)	.	.	voice
8AA	He	.	.	.	.	.
=149	=149	=149	=149	=149	=149	=149
8F#	said,	.	.	.	.	.
8E	\\\"I	.	.	.	.	.
4F#	dance	.	.	.	.	.
=148	=148	=148	=148	=148	=148	=148
8F#	now	2.EMm	E:9 (E G# D F#)	.	.	voice
8E	at	.	.	.	.	.
=150	=150	=150	=150	=150	=150	=150
8F#	ev-	.	.	.	.	.
8E	-'ry	.	.	.	.	.
4F#	chance	.	.	.	.	.
=149	=149	=149	=149	=149	=149	=149
8E	and	2.AM	A:maj (A C# E)	newline	162.087	voice
[8F#	hon	.	.	.	.	.
=151	=151	=151	=151	=151	=151	=151
8F#]	_	.	.	.	.	.
8E	ky	.	.	.	.	.
2D	tonk...	.	.	.	.	.
=150	=150	=150	=150	=150	=150	=150
.	.	2.AM	A:maj (A C# E)	.	.	voice
=152	=152	=152	=152	=152	=152	=152
2.r	.	.	.	.	.	.
=151	=151	=151	=151	=151	=151	=151
.	.	2.AM	A:maj (A C# E)	.	.	voice
=153	=153	=153	=153	=153	=153	=153
4r	.	.	.	.	.	.
4r	.	.	.	.	.	.
=152	=152	=152	=152	=152	=152	=152
8r	.	2.AM	A:maj (A C# E)	.	.	voice
8GG	for	.	.	.	.	.
=154	=154	=154	=154	=154	=154	=154
2B	drinks	.	.	.	.	.
=153	=153	=153	=153	=153	=153	=153
*	*	*>A_verse	*>A_verse	*>A_verse	*>A_verse	*>A_verse
8A	and	2.DM	D:maj (D F# A)	newline	166.397	voice
[8A	tips	.	.	.	.	.
=155	=155	=155	=155	=155	=155	=155
2A]	_	.	.	.	.	.
=154	=154	=154	=154	=154	=154	=154
4r	.	2.DM	D:maj (C# D F# A)	.	.	voice
=156	=156	=156	=156	=156	=156	=156
4r	.	.	.	.	.	.
4r	.	.	.	.	.	.
=155	=155	=155	=155	=155	=155	=155
8r	.	2.DM	D:maj (B D F# A)	.	.	voice
8BB	But	.	.	.	.	.
=157	=157	=157	=157	=157	=157	=157
8F#	most	.	.	.	.	.
8E	the	.	.	.	.	.
4F#	time,	.	.	.	.	.
=156	=156	=156	=156	=156	=156	=156
8E	I	2.DM	D:maj (A D F#)	.	.	voice
[8F#	spend	.	.	.	.	.
=158	=158	=158	=158	=158	=158	=158
8F#]	_	.	.	.	.	.
8E	be-	.	.	.	.	.
4F#	-hind	.	.	.	.	.
=157	=157	=157	=157	=157	=157	=157
8E	these	2.GM	G:maj (G B D)	newline	170.818	voice
[8F#	coun	.	.	.	.	.
=159	=159	=159	=159	=159	=159	=159
8F#]	_	.	.	.	.	.
8E	ty	.	.	.	.	.
2.D	bars...	.	.	.	.	.
=158	=158	=158	=158	=158	=158	=158
.	.	2.GM	G:maj (G B D)	.	.	voice
=160	=160	=160	=160	=160	=160	=160
2.r	.	.	.	.	.	.
=159	=159	=159	=159	=159	=159	=159
.	.	2.AM	A:maj (A C# E)	.	.	voice
=161	=161	=161	=161	=161	=161	=161
4r	.	.	.	.	.	.
=160	=160	=160	=160	=160	=160	=160
8r	.	2.AM	A:maj (A C# E)	.	.	voice
8GG	cuz	.	.	.	.	.
8B	I	.	.	.	.	.
8A	can	.	.	.	.	.
=162	=162	=162	=162	=162	=162	=162
2B	drinks	.	.	.	.	.
=161	=161	=161	=161	=161	=161	=161
.	.	2.DM	D:maj (D F# A)	newline	175.128	voice
8A	a	.	.	.	.	.
[8A	bit	.	.	.	.	.
=163	=163	=163	=163	=163	=163	=163
2.A]	.\\\"	.	.	.	.	.
=162	=162	=162	=162	=162	=162	=162
.	.	2.DM	D:maj (C# D F# A)	.	.	voice
=164	=164	=164	=164	=164	=164	=164
2.r	.	.	.	.	.	.
=163	=163	=163	=163	=163	=163	=163
.	.	2.DM	D:maj (B D F# A)	.	.	voice
=165	=165	=165	=165	=165	=165	=165
4r	.	.	.	.	.	.
=164	=164	=164	=164	=164	=164	=164
4r	.	2.DM	D:maj (A D F#)	.	.	voice
8r	.	.	.	.	.	.
8GG	He	.	.	.	.	.
=166	=166	=166	=166	=166	=166	=166
8B	shook	.	.	.	.	.
8B	his	.	.	.	.	.
=165	=165	=165	=165	=165	=165	=165
2c#	_	2.GM	G:maj (G B D)	newline	179.564	voice
=167	=167	=167	=167	=167	=167	=167
4A	head,	.	.	.	.	.
=166	=166	=166	=166	=166	=166	=166
2F#	_	2.GM	G:maj (G B D)	.	.	voice
=168	=168	=168	=168	=168	=168	=168
8.F#	as	.	.	.	.	.
8.F#	he	.	.	.	.	.
=167	=167	=167	=167	=167	=167	=167
.	.	2.AM	A:maj (A C# E)	.	.	voice
8.F#	shook	.	.	.	.	.
8.E	his	.	.	.	.	.
=169	=169	=169	=169	=169	=169	=169
2.D	head...	.	.	.	.	.
=168	=168	=168	=168	=168	=168	=168
.	.	2.AM	A:maj (A C# E)	.	.	voice
=170	=170	=170	=170	=170	=170	=170
2.r	.	.	.	.	.	.
=169	=169	=169	=169	=169	=169	=169
.	.	2.GM	G:maj (G B D)	newline	183.868	voice
=171	=171	=171	=171	=171	=171	=171
4r	.	.	.	.	.	.
=170	=170	=170	=170	=170	=170	=170
8r	.	2.GM	G:maj (G B D)	.	.	voice
8GG	I	.	.	.	.	.
4F#	heard	.	.	.	.	.
=172	=172	=172	=172	=172	=172	=172
8F#	some-	.	.	.	.	.
8D	-one	.	.	.	.	.
=171	=171	=171	=171	=171	=171	=171
2D	ask,	2.DM	D:maj (D F# A)	.	.	voice
=173	=173	=173	=173	=173	=173	=173
[2.E	\\\"please	.	.	.	.	.
=172	=172	=172	=172	=172	=172	=172
.	.	2.F#M	F#:maj (F# A# C#)	.	.	voice
=174	=174	=174	=174	=174	=174	=174
2E]	...\\\"	.	.	.	.	.
=173	=173	=173	=173	=173	=173	=173
.	.	2.Bm	B:min (B D F#)	newline	188.276	voice
4r	.	.	.	.	.	.
=175	=175	=175	=175	=175	=175	=175
2.r	.	.	.	.	.	.
=174	=174	=174	=174	=174	=174	=174
.	.	2.Bm	B:min (A B D F#)	.	.	voice
=176	=176	=176	=176	=176	=176	=176
2.r	.	.	.	.	.	.
=175	=175	=175	=175	=175	=175	=175
.	.	2.EMm	E:9 (G# E D F#)	.	.	voice
=177	=177	=177	=177	=177	=177	=177
2.r	.	.	.	.	.	.
=176	=176	=176	=176	=176	=176	=176
.	.	2.EMm	E:9 (E G# D F#)	.	.	voice
=178	=178	=178	=178	=178	=178	=178
8B	Mis-	.	.	.	.	.
8A	-ter	.	.	.	.	.
=177	=177	=177	=177	=177	=177	=177
8Bq	_	.	.	.	.	.
2c#	Bo-	2.AM	A:maj (A C# E)	newline	192.541	voice
=179	=179	=179	=179	=179	=179	=179
8A	-jan	.	.	.	.	.
8F#	_	.	.	.	.	.
=178	=178	=178	=178	=178	=178	=178
[2E	gles	2.AM	A:maj (A C# E)	.	.	voice
=180	=180	=180	=180	=180	=180	=180
4E]	...	.	.	.	.	.
=179	=179	=179	=179	=179	=179	=179
4r	.	2.AM	A:maj (A C# E)	.	.	voice
4r	.	.	.	.	.	.
=181	=181	=181	=181	=181	=181	=181
2.r	.	.	.	.	.	.
=180	=180	=180	=180	=180	=180	=180
.	.	2.AM	A:maj (A C# E)	.	.	voice
=182	=182	=182	=182	=182	=182	=182
8B	Mis-	.	.	.	.	.
8A	-ter	.	.	.	.	.
=181	=181	=181	=181	=181	=181	=181
*	*	*>B_chorus	*>B_chorus	*>B_chorus	*>B_chorus	*>B_chorus
8Bq	_	.	.	.	.	.
2c#	Bo-	2.Bm	B:min (B D F#)	newline	196.901	voice
=183	=183	=183	=183	=183	=183	=183
8A	-jan	.	.	.	.	.
8F#	_	.	.	.	.	.
=182	=182	=182	=182	=182	=182	=182
[2E	gles...	2.Bm	B:min (B D F#)	.	.	voice
=184	=184	=184	=184	=184	=184	=184
4E]	_	.	.	.	.	.
=183	=183	=183	=183	=183	=183	=183
4r	.	2.AM	A:maj (A C# E)	.	.	voice
4r	.	.	.	.	.	.
=185	=185	=185	=185	=185	=185	=185
2.r	.	.	.	.	.	.
=184	=184	=184	=184	=184	=184	=184
.	.	2.AM	A:maj (A C# E)	.	.	voice
=186	=186	=186	=186	=186	=186	=186
8B	Mis-	.	.	.	.	.
8A	-ter	.	.	.	.	.
=185	=185	=185	=185	=185	=185	=185
8Bq	_	.	.	.	.	.
2c#	Bo-	2.Bm	B:min (B D F#)	newline	201.199	voice
=187	=187	=187	=187	=187	=187	=187
8A	-jan	.	.	.	.	.
8F#	_	.	.	.	.	.
=186	=186	=186	=186	=186	=186	=186
[2E	gles	2.Bm	B:min (B D F#)	.	.	voice
=188	=188	=188	=188	=188	=188	=188
4E]	...	.	.	.	.	.
=187	=187	=187	=187	=187	=187	=187
4r	.	2.AM	A:maj (A C# E)	.	.	voice
4r	.	.	.	.	.	.
=189	=189	=189	=189	=189	=189	=189
[2.D	dance	.	.	.	.	.
=188	=188	=188	=188	=188	=188	=188
.	.	2.AM	A:maj (A C# E)	.	.	voice
=190	=190	=190	=190	=190	=190	=190
4D]	_	.	.	.	.	.
=189	=189	=189	=189	=189	=189	=189
4r	.	2.Bm	B:min (B D F#)	newline	205.527	voice
4r	.	.	.	.	.	.
=191	=191	=191	=191	=191	=191	=191
2.r	.	.	.	.	.	.
=190	=190	=190	=190	=190	=190	=190
.	.	2.Bm	B:min (B D F#)	.	.	voice
=192	=192	=192	=192	=192	=192	=192
2.r	.	.	.	.	.	.
=191	=191	=191	=191	=191	=191	=191
.	.	2.AM	A:maj (A C# E)	.	.	voice
=193	=193	=193	=193	=193	=193	=193
2.r	.	.	.	.	.	.
=192	=192	=192	=192	=192	=192	=192
.	.	2.AM	A:maj (A C# E)	.	.	voice
=194	=194	=194	=194	=194	=194	=194
8B	Mis-	.	.	.	.	.
8A	-ter	.	.	.	.	.
=193	=193	=193	=193	=193	=193	=193
*	*	*>C_outro	*>C_outro	*>C_outro	*>C_outro	*>C_outro
8Bq	_	.	.	.	.	.
2c#	Bo-	2.DM	D:maj (D F# A)	newline	209.815	guitar
=195	=195	=195	=195	=195	=195	=195
8A	-jan	.	.	.	.	.
8F#	_	.	.	.	.	.
=194	=194	=194	=194	=194	=194	=194
2E	gles	2.DM	D:maj (C# D F# A)	.	.	guitar
*-	*-	*	*
.	.	.	.	.
=195	=195	=195	=195	=195
2.DM	D:maj (B D F# A)	.	.	guitar
=196	=196	=196	=196	=196
2.DM	D:maj (A D F#)	.	.	guitar
=197	=197	=197	=197	=197
2.GM	G:maj (G B D)	newline	214.182	guitar
=198	=198	=198	=198	=198
2.GM	G:maj (G B D)	.	.	guitar
=199	=199	=199	=199	=199
2.AM	A:maj (A C# E)	.	.	guitar
=200	=200	=200	=200	=200
2.AM	A:maj (A C# E)	.	.	guitar
=201	=201	=201	=201	=201
*>_fadeout	*>_fadeout	*>_fadeout	*>_fadeout	*>_fadeout
2.DM	D:maj (D F# A)	newline	218.454	guitar
=202	=202	=202	=202	=202
2.DM	D:maj (C# D F# A)	.	.	guitar
=203	=203	=203	=203	=203
2.DM	D:maj (B D F# A)	.	.	guitar
=204	=204	=204	=204	=204
2.DM	D:maj (A D F#)	.	.	guitar
=205	=205	=205	=205	=205
2.GM	G:maj (G B D)	newline	222.721	guitar
=206	=206	=206	=206	=206
2.GM	G:maj (G B D)	.	.	guitar
=207	=207	=207	=207	=207
2.AM	A:maj (A C# E)	.	.	guitar
=208	=208	=208	=208	=208
2.AM	A:maj (A C# E)	.	.	guitar
=209	=209	=209	=209	=209
2.DM	D:maj (D F# A)	newline	227.074	guitar
=210	=210	=210	=210	=210
2.DM	D:maj (C# D F# A)	.	.	guitar
=211	=211	=211	=211	=211
2.DM	D:maj (B D F# A)	.	.	guitar
1r;	r	.	229.878	r
1r;	r	.	234.449	r
*-	*-	*-	*-	*-
!!!BillboardChartDate: 1968/08/24
!!!BillboardPeak: 77
!!!BillboardWeeksOnChart: 5
!!!COC: Jerry Jeff Walker
!!!ENC: Nathaniel Condit-Schultz
!!!EST: Awating manual error checking and editing.
!!!OTL: Mr. Bojangles
!!!RDF**chordsym: original McGill chord annotation + (implied pitch class set, with bass pitch in first position)
!!!RDF**harmony: **recip + pitch class of root + harmonic quality
!!!RDF**leadinstrument: original McGill primary instrumentation annotation
!!!RDF**phrase: newline = linebreak in original McGill transcription
!!!RDF**timestamp: McGill audio timestamp in seconds
!!!RDT: 2017/01/12/
!!!SampleActualRank: 79
!!!SampleID#: 0294
!!!SampleTargetRank: 78
